!!!COA: des Prez, Josquin
!!!CDT: ~1450-1521/08/27
!!!OTL: Textless piece [Dressler 1571]
!!!AGN: Unknown
!!!ONB: Missing parts
!!!SCT: NJE 99.5
!!!SCA: New Josquin Edition 99.5
!!!voices: 1
!!!COM: des Prez, Josquin ?
!!!OTL: Jos9905-Textless_piece_(Dressler_1571)
**kern
*staff1
*clefG2
*k[]
*M2/1
*met(O3)
=1-
!LO:TX:Z=32:t=In Dressler's example, perfect longs are each worth nine breves under Cut-C
!LO:TX:Z=8:X=-40:t=O3 mensuration
[0e
=2.
0e_
=3.
0e_
=4.
0e_
=5.
0e_
=6.
0e_
=7.
0e_
=8.
0e_
=9.
0e]
=10
[0e
=11.
0e_
=12.
0e]
=13.
[0d
=14.
0d_
=15.
0d_
=16.
0d_
=17.
0d_
=18.
0d]
=19
[0g
=20.
0g_
=21.
0g_
=22.
0g_
=23.
0g_
=24.
0g]
=25.
[0a
=26.
0a_
=27.
0a_
=28
0a_
=29.
0a_
=30.
0a]
=31.
[0cc
=32.
0cc_
=33.
0cc_
=34.
0cc_
=35.
0cc_
=36.
0cc]
=37
[0cc
=38.
0cc_
=39.
0cc_
=40.
0cc_
=41.
0cc_
=42.
0cc]
=43.
0r
=44.
0r
=45.
0r
=46
0r
=47.
0r
=48.
0r
=49.
[0cc
=50.
0cc_
=51.
0cc_
=52.
0cc_
=53.
0cc_
=54.
0cc]
=55
[0b
=56.
0b_
=57.
0b_
=58.
0b_
=59.
0b_
=60.
0b]
=61.
[0g
=62.
0g_
=63.
0g_
=64
0g_
=65.
0g_
=66.
0g]
=67.
[0b
=68.
0b_
=69.
0b_
=70.
0b_
=71.
0b_
=72.
0b]
=73
[0cc
=74.
0cc_
=75.
0cc]
=76.
[0cc
=77.
0cc_
=78.
0cc]
=79.
[0a
=80.
0a_
=81.
0a_
=82
0a_
=83.
0a_
=84.
0a]
=85.
0r
=86.
0r
=87.
0r
=88.
0r
=89.
0r
=90.
0r
=91
[0g
=92.
0g_
=93.
0g_
=94.
0g_
=95.
0g_
=96.
0g]
=97.
[0f
=98.
0f_
=99.
0f]
=100
[0f
=101.
0f_
=102.
0f]
=103.
[0g
=104.
0g_
=105.
0g_
=106.
0g_
=107.
0g_
=108.
0g]
=109
[0a
=110.
0a_
=111.
0a_
=112.
0a_
=113.
0a_
=114.
0a]
=115.
[0g
=116.
0g_
=117.
0g_
=118
0g_
=119.
0g_
=120.
0g]
=121.
[0f
=122.
0f_
=123.
0f_
=124.
0f_
=125.
0f_
=126.
0f]
=127
0el
==
*-
!!!RDF**kern: l=long note in original notation
!!!ENC: Jesse Rodin
!!!END: 2020/10/22
!!!EED: Jesse Rodin
!!!EEV: 2021/04/14
!!attribution-level@Jos: 4a (the rest [double question mark])
!!!ONB: Translated from MusicXML and edited on 2021/04/14 by Craig Sapp
!!muse2ps: C^@{COA}??\n@{SCT}^i2I150v150c190z18t300
